public/img/logo/instagram.svg

<?xml version="1.0" encoding="iso-8859-1"?>
<!-- Generator: Adobe Illustrator 19.0.0, SVG Export Plug-In . SVG Version: 6.00 Build 0)  -->
<svg version="1.1" id="Layer_1" xmlns="http://www.w3.org/2000/svg" xmlns:xlink="http://www.w3.org/1999/xlink" x="0px" y="0px"
	 viewBox="0 0 89.758 89.758" style="enable-background:new 0 0 89.758 89.758;" xml:space="preserve">
<g>
	<path style="fill:#6A453B;" d="M58.255,23.88H31.503c-4.27,0-7.744,3.474-7.744,7.744v26.752c0,4.27,3.474,7.745,7.744,7.745
		h26.752c4.27,0,7.745-3.474,7.745-7.745V31.624C66,27.354,62.526,23.88,58.255,23.88z M44.879,58.906
		c-7.667,0-13.905-6.238-13.905-13.906c0-7.667,6.238-13.905,13.905-13.905c7.668,0,13.906,6.238,13.906,13.905
		C58.785,52.667,52.546,58.906,44.879,58.906z M59.232,33.97c-1.815,0-3.291-1.476-3.291-3.29c0-1.814,1.476-3.29,3.291-3.29
		c1.814,0,3.29,1.476,3.29,3.29C62.522,32.494,61.046,33.97,59.232,33.97z"/>
	<path style="fill:#6A453B;" d="M44.879,36.971c-4.426,0-8.03,3.602-8.03,8.028c0,4.428,3.604,8.031,8.03,8.031
		c4.428,0,8.029-3.603,8.029-8.031C52.908,40.574,49.306,36.971,44.879,36.971z"/>
	<path style="fill:#6A453B;" d="M44.879,0C20.094,0,0,20.094,0,44.879c0,24.785,20.094,44.879,44.879,44.879
		c24.785,0,44.879-20.094,44.879-44.879C89.758,20.094,69.664,0,44.879,0z M71.875,58.376c0,7.511-6.109,13.62-13.62,13.62H31.503
		c-7.51,0-13.62-6.109-13.62-13.62V31.624c0-7.51,6.11-13.62,13.62-13.62h26.752c7.511,0,13.62,6.11,13.62,13.62V58.376z"/>
</g>
<g>
</g>
<g>
</g>
<g>
</g>
<g>
</g>
<g>
</g>
<g>
</g>
<g>
</g>
<g>
</g>
<g>
</g>
<g>
</g>
<g>
</g>
<g>
</g>
<g>
</g>
<g>
</g>
<g>
</g>
</svg>

<?xml version="1.0" encoding="UTF-8" standalone="no"?>
<!DOCTYPE svg PUBLIC "-//W3C//DTD SVG 1.1//EN" "http://www.w3.org/Graphics/SVG/1.1/DTD/svg11.dtd">
<svg width="100%" height="100%" viewBox="0 0 90 90" version="1.1" xmlns="http://www.w3.org/2000/svg" xmlns:xlink="http://www.w3.org/1999/xlink" xml:space="preserve" xmlns:serif="http://www.serif.com/" style="fill-rule:evenodd;clip-rule:evenodd;stroke-linejoin:round;stroke-miterlimit:2;">
    <path d="M58.255,23.88L31.503,23.88C27.233,23.88 23.759,27.354 23.759,31.624L23.759,58.376C23.759,62.646 27.233,66.121 31.503,66.121L58.255,66.121C62.525,66.121 66,62.647 66,58.376L66,31.624C66,27.354 62.526,23.88 58.255,23.88ZM44.879,58.906C37.212,58.906 30.974,52.668 30.974,45C30.974,37.333 37.212,31.095 44.879,31.095C52.547,31.095 58.785,37.333 58.785,45C58.785,52.667 52.546,58.906 44.879,58.906ZM59.232,33.97C57.417,33.97 55.941,32.494 55.941,30.68C55.941,28.866 57.417,27.39 59.232,27.39C61.046,27.39 62.522,28.866 62.522,30.68C62.522,32.494 61.046,33.97 59.232,33.97Z" style="fill:rgb(40,40,40);fill-rule:nonzero;"/>
    <path d="M44.879,36.971C40.453,36.971 36.849,40.573 36.849,44.999C36.849,49.427 40.453,53.03 44.879,53.03C49.307,53.03 52.908,49.427 52.908,44.999C52.908,40.574 49.306,36.971 44.879,36.971Z" style="fill:rgb(40,40,40);fill-rule:nonzero;"/>
    <path d="M44.879,0C20.094,0 0,20.094 0,44.879C0,69.664 20.094,89.758 44.879,89.758C69.664,89.758 89.758,69.664 89.758,44.879C89.758,20.094 69.664,0 44.879,0ZM71.875,58.376C71.875,65.887 65.766,71.996 58.255,71.996L31.503,71.996C23.993,71.996 17.883,65.887 17.883,58.376L17.883,31.624C17.883,24.114 23.993,18.004 31.503,18.004L58.255,18.004C65.766,18.004 71.875,24.114 71.875,31.624L71.875,58.376Z" style="fill:rgb(40,40,40);fill-rule:nonzero;"/>
</svg>
